X: 20924
T: Jota Popular
R: mazurka
M: 3/4
K: Bminor
F2 G2|:A2B2c2|d2c2B2|A4G2|G2E2F2|G2A2B2|G4F2|
F2F2G2|A2B2c2|d2c2B2|A4G2|G2E2F2|G2A2B2|c2B2A2|
d2A2F2|1 D2F2G2:|2 D2Z||
E2>FG2|A2B2c2|AB AG F2|F4
F2>G A2|B2c2A2|Bc BA G2||1 G4:|2 BA Bc dB||
cd cB A2|GF GA BG|AB AG F2|F4>|
F2> G A2|B2c2A2|Bc BA G2|BA Bc dB|cd cB A2|
GF GA BG|AB AG F2|F z||

